!!!!SEGMENT: pl-sa--l-1636--045_anonim--keyboard-piece.krn
!!!cenid: 17xx:752
!!!COM: Anonim
!!!COM-rismID: pe30004985
!!!CDT:
!!!CNT:
!!!OTL: [Keyboard piece]
!!!PDT:
!!!AGN: Secular
!!!SMS-siglum: PL-SA
!!!SMS-shelfmark: L 1636
!!!SMS-shelfwork: 045 W
!!!SMS-variant:
!!!SMS-altvar:
!!!NIFC-rismSourceID: 1001076533
!!!NIFC-rismChildID: 1001076533
!!!NIFC-islandoraID:
!!!URL-pdf-islandora:
!!!URL-scan:
!!!IIIF:
!!!ONB-nifc: 13r, skan 0016, s. 6-8
!!!AIN: 2 empty
!!!key:
**kern	**kern
*group1	*group1
*part2	*part1
*staff2	*staff1
*Iempty	*Iempty
*I"	*I"
*clefC3	*clefC1
*k[]	*k[]
*G:	*G:
*M2/2	*M2/2
*met(c|)	*met(c|)
=1	=1
*2\right	*2\right
!	!LO:TX:a:t=P:problem=8\right&colon; global
1r	8dd\L
!	!LO:TX:a:t=P:problem=16\right&colon; global
.	16cc\L
.	16dd\JJ
.	8b\L
.	8dd\J
.	8cc\L
.	16b\L
.	16cc\JJ
.	16a\LL
.	16b\
.	16cc\
.	16dd\JJ
=2	=2
!LO:TX:a:t=P:problem=8\right&colon; global	!
8g\L	8b/L
!LO:TX:a:t=P:problem=16\right&colon; global	!
16f\L	16a/L
16g\JJ	16b/JJ
8e\L	8g\L
8g\J	8b\J
!LO:TX:a:t=♯	!
8f#X\L	8a\L
16e\L	16g\L
16f#\JJ	16a\JJ
!	!LO:TX:a:t=P:problem=mixed beam
8d\L	8f#X/L
8f#X\J	8a\J
=3	=3
*^	*
!LO:TX:a:t=P:problem=4\right&colon; global	!	!
4.e\	2ryy	8g\L
.	.	16a\L
.	.	16b\JJ
!	!	!LO:TX:a:t=P:problem=4\right&colon; global
.	.	4cc\
8c\	.	.
4f#X/	[>2d\	4cc\
[4g/	.	16b\LL
.	.	16cc\
.	.	16dd\
.	.	16ee\JJ
=4	=4	=4
*	*	*^
4g/]	2d\]	4.a/	2f#X\
4f#X/	.	.	.
.	.	16g/LL	.
.	.	16a/JJ	.
*clefF4	*	*	*
8r	2ryy	2b/	2g\
16G\LL	.	.	.
16A\JJ	.	.	.
8B\L	.	.	.
8G\J	.	.	.
*v	*v	*	*
!!LO:LB:g=original
=5	=5	=5
!LO:TX:a:t=P:problem=mixed beam	!	!
8D/L	2a/	2f#X\
8d\	.	.
8d\	.	.
8d\J	.	.
8e\L	2b/	2g\
16d\L	.	.
16c\JJ	.	.
8B\L	.	.
8c\J	.	.
=6	=6	=6
8r	8f#X/L	2d\
8F#X\L	8a/	.
8F#\	8a/	.
8F#\J	8a/J	.
4G\	8g/L	8e\L
.	8f#/J	8d\J
4A\	8e/L	8d\L
.	16d/L	8c#X\J
.	16e/JJ	.
=7	=7	=7
8r	2f#X/	2d\
16D\LL	.	.
16E\JJ	.	.
8F#X\L	.	.
8D\J	.	.
!LO:TX:a:t=P:problem=mixed beam	!	!
8G\L	2g/	2B/ 2d
16GG/L	.	.
16AA/J	.	.
8BB/	.	.
8GG/J	.	.
*	*v	*v
=8	=8
*^	*
!	!	!LO:TX:a:t=P:problem=mixed beam
2A/	2D\	8f#X/L
.	.	8dd\
.	.	8dd\
.	.	8dd\J
4G/	4E\	8cc\L
.	.	16b\L
.	.	16cc\JJ
4A/	4F#X\	16a\LL
.	.	16b\
.	.	16cc\
.	.	16dd\JJ
!!LO:LB:g=original
=9	=9	=9
4G\	2ryy	8b\L
.	.	8gg\
4GG/	.	8gg\
.	.	8gg\J
4C/	4AA\	8ffn\L
.	.	16ee\L
.	.	16ff\JJ
4D/	4BB\	16dd\LL
.	.	16ee\
.	.	16ff\
.	.	16gg\JJ
*v	*v	*
=10	=10
*	*^
8C/L	2ee/	2cc\
16C/L	.	.
16D/JJ	.	.
8E\L	.	.
8C\J	.	.
4G\	8dd/L	8b\L
.	8ee/	8cc\
4E\	8ee/	8cc\
.	8ee/J	8cc\J
=11	=11	=11
4F\	8ff/L	8dd\L
.	8ee/J	8cc\J
4G\	8dd/L	8b\L
.	16cc/L	16a\L
.	16dd/JJ	16b\JJ
!	!LO:SIC:n=2:s=8g:v	!
2C/	8ee/L	8a\L 8cc
.	8cc/J	16e\L
.	.	16f\JJ
.	4cc/	8g\L
.	.	8e\J
=12	=12	=12
2D/	8cc/	8f#X\L
.	8b/	8f#\J
.	4b/	8g\L
.	.	8g\J
2DD/	2a/	4g\
.	.	4f#\
*	*v	*v
=13	=13
1GG 1D 1G	1d 1g 1b
==	==
*-	*-
!!!system-decoration: [(g1)]
!!!RDF**kern: >= above
!!!RDF**kern: <= below
!!!ENC: Anna Matuszewska
!!!END: 2020-12-08
!!!ENC: Andrzej Borzym
!!!END: 2020-06-11
!!!YEC: Copyright 2022 Narodowy Instytut Fryderyka Chopina (https://polishscores.org)
!!!YEM: License CC-BY-4.0 (https://creativecommons.org/licenses/by/4.0)
